extras/plugin-icons/scroll-wheel-zoom-disable.svg

<?xml version="1.0" encoding="UTF-8"?>
<svg width="32" height="32" version="1.1" viewBox="0 0 32 32" xml:space="preserve" xmlns="http://www.w3.org/2000/svg"><rect x=".4923" y=".4923" width="31.02" height="31.02" ry="4.258" fill="#643893" stroke="#371a4a" stroke-width=".9846"/><g transform="matrix(.025 0 0 .025 3.5 27.983)" fill="#fff"><path d="m480-538.46m0 438.46q-107.92 0-183.96-76.04t-76.04-183.96v-238.46q0-107.92 76.04-183.96t183.96-76.04 183.96 76.04 76.04 183.96v110.92q-15-2.85-30-3.04t-30 2.27v-50.15h-400v178.46q0 83 58.5 141.5t141.5 58.5q6.87 0 12.81-0.62 5.94-0.61 12.19-1.84v60.61q-6.25 1.23-12.19 1.54t-12.81 0.31zm-200-498.46h170v-197.54q-72.08 10.54-121.04 66.31t-48.96 131.23zm230 0h170q0-75.46-48.96-131.23t-121.04-66.31zm114.38 498.46q-14 0-24.38-10.39-10.39-10.38-10.39-24.38v-122q0-14 10.39-24 10.38-10 24.38-10h5.23v-40q0-31.46 21.97-53.42 21.96-21.96 53.42-21.96t53.42 21.96 21.96 53.42v40h5.23q14.16 0 24.28 10 10.11 10 10.11 24v122q0 14-10.11 24.38-10.12 10.39-24.28 10.39zm40.62-190.77h80v-40q0-17-11.5-28.5t-28.5-11.5-28.5 11.5-11.5 28.5z"/></g></svg>

<?xml version="1.0" encoding="UTF-8" standalone="no"?>
<svg
   width="32"
   height="32"
   version="1.1"
   viewBox="0 0 32 32"
   xml:space="preserve"
   id="svg4"
   sodipodi:docname="scroll-wheel-zoom-disable.svg"
   inkscape:version="1.3.2 (091e20e, 2023-11-25)"
   xmlns:inkscape="http://www.inkscape.org/namespaces/inkscape"
   xmlns:sodipodi="http://sodipodi.sourceforge.net/DTD/sodipodi-0.dtd"
   xmlns="http://www.w3.org/2000/svg"
   xmlns:svg="http://www.w3.org/2000/svg"><defs
     id="defs4" /><sodipodi:namedview
     id="namedview4"
     pagecolor="#ffffff"
     bordercolor="#000000"
     borderopacity="0.25"
     inkscape:showpageshadow="2"
     inkscape:pageopacity="0.0"
     inkscape:pagecheckerboard="0"
     inkscape:deskcolor="#d1d1d1"
     showguides="true"
     inkscape:zoom="5.2661727"
     inkscape:cx="-8.8299421"
     inkscape:cy="16.330646"
     inkscape:window-width="2528"
     inkscape:window-height="1359"
     inkscape:window-x="45"
     inkscape:window-y="25"
     inkscape:window-maximized="0"
     inkscape:current-layer="svg4" /><rect
     x=".4923"
     y=".4923"
     width="31.02"
     height="31.02"
     ry="4.258"
     fill="#643893"
     stroke="#371a4a"
     stroke-width=".9846"
     id="rect1" /><g
     style="fill:#ffffff"
     id="g9"
     transform="matrix(0.025,0,0,0.025,3.5,27.98305)"><path
       d="M 480,-538.46 Z M 480,-100 Q 372.08,-100 296.04,-176.04 220,-252.08 220,-360 v -238.46 q 0,-107.92 76.04,-183.96 76.04,-76.04 183.96,-76.04 107.92,0 183.96,76.04 76.04,76.04 76.04,183.96 v 110.92 q -15,-2.85 -30,-3.04 -15,-0.19 -30,2.27 v -50.15 H 280 V -360 q 0,83 58.5,141.5 58.5,58.5 141.5,58.5 6.87,0 12.81,-0.62 5.94,-0.61 12.19,-1.84 v 60.61 q -6.25,1.23 -12.19,1.54 Q 486.87,-100 480,-100 Z M 280,-598.46 H 450 V -796 q -72.08,10.54 -121.04,66.31 Q 280,-673.92 280,-598.46 Z m 230,0 h 170 q 0,-75.46 -48.96,-131.23 Q 582.08,-785.46 510,-796 Z M 624.38,-100 q -14,0 -24.38,-10.39 -10.39,-10.38 -10.39,-24.38 v -122 q 0,-14 10.39,-24 10.38,-10 24.38,-10 h 5.23 v -40 q 0,-31.46 21.97,-53.42 21.96,-21.96 53.42,-21.96 31.46,0 53.42,21.96 21.96,21.96 21.96,53.42 v 40 h 5.23 q 14.16,0 24.28,10 10.11,10 10.11,24 v 122 q 0,14 -10.11,24.38 Q 799.77,-100 785.61,-100 Z M 665,-290.77 h 80 v -40 q 0,-17 -11.5,-28.5 -11.5,-11.5 -28.5,-11.5 -17,0 -28.5,11.5 -11.5,11.5 -11.5,28.5 z M 480,-538.46 Z m 30,-60 z m -60,0 z"
       id="path1" /></g></svg>
